ion/logo-dribbble.svg

<svg viewBox="0 0 512 512" xmlns="http://www.w3.org/2000/svg"><path d="M256 32C132.33 32 32 132.33 32 256c0 123.67 100.33 224 224 224s224-100.22 224-224 -100.33-224-224-224Zm142.22 103.25v-.001c25.91 30.46 41.34 68.46 44 108.38 -40.37-2.1-88.67-2.1-127.4 1.52 -4.9-12.37-9.92-24.5-15.4-36.17 44.66-19.36 79.08-44.8 98.8-73.73ZM256 69.33v-.001c43.5-.08 85.66 15.12 119.12 42.94 -20.3 25.66-52.15 48-91.82 64.86 -21.7-40.13-46.67-74.66-73.3-101.85l0 0c15.02-3.88 30.47-5.88 46-5.95Zm-84.47 20.42c26.95 26.83 52.27 61 74.44 101C203.85 203.62 155.55 211 104 211c-9.8 0-19.36-.35-28.81-.94h0c13.29-52.11 48.4-95.95 96.34-120.31ZM69.68 247.13c10.62.47 21.35.7 32.2.59 58.8-.7 113.52-9.92 160.54-25q6.65 13.83 12.6 28.35v0c-5.69 1.24-11.27 2.91-16.69 5 -64.28 27-114.91 70.51-142.33 123.13v0c-30.07-34-46.67-77.82-46.67-123.2 0-3 .12-5.95.35-8.87ZM256 442.67l0 0c-41.48.05-81.77-13.8-114.45-39.32 24.85-49.23 69.18-90 125.07-115.27 5.25-2.45 12.25-4.43 20.3-6.18q10 27.64 17.85 57.4l0 0c7.81 29.94 13.57 60.38 17.23 91.12v-.001c-21.07 8.07-43.44 12.22-66 12.25Zm100.92-29.75l-.001 0c-3.66-31.06-9.47-61.81-17.39-92.05 -4-15.17-8.51-29.87-13.41-44.22 36.63-3 80.5-2.57 115.38 0h0c-6.23 55.84-37.3 105.9-84.58 136.27Z"/></svg>

<svg xmlns="http://www.w3.org/2000/svg" width="512" height="512" viewBox="0 0 512 512"><path d="M256,32C132.33,32,32,132.33,32,256S132.33,480,256,480,480,379.78,480,256,379.67,32,256,32ZM398.22,135.25a186.36,186.36,0,0,1,44,108.38c-40.37-2.1-88.67-2.1-127.4,1.52-4.9-12.37-9.92-24.5-15.4-36.17C344.08,189.62,378.5,164.18,398.22,135.25ZM256,69.33a185.81,185.81,0,0,1,119.12,42.94c-20.3,25.66-52.15,48-91.82,64.86C261.6,137,236.63,102.47,210,75.28A187.51,187.51,0,0,1,256,69.33ZM171.53,89.75c26.95,26.83,52.27,61,74.44,101C203.85,203.62,155.55,211,104,211c-9.8,0-19.36-.35-28.81-.94A186.78,186.78,0,0,1,171.53,89.75ZM69.68,247.13c10.62.47,21.35.7,32.2.59,58.8-.7,113.52-9.92,160.54-25q6.65,13.83,12.6,28.35a115.43,115.43,0,0,0-16.69,5C194.05,283.07,143.42,326.58,116,379.2A186,186,0,0,1,69.33,256C69.33,253,69.45,250.05,69.68,247.13ZM256,442.67a185.57,185.57,0,0,1-114.45-39.32c24.85-49.23,69.18-90,125.07-115.27,5.25-2.45,12.25-4.43,20.3-6.18q10,27.64,17.85,57.4A678,678,0,0,1,322,430.42,185.06,185.06,0,0,1,256,442.67Zm100.92-29.75a672.61,672.61,0,0,0-17.39-92.05c-4-15.17-8.51-29.87-13.41-44.22,36.63-3,80.5-2.57,115.38,0A186.5,186.5,0,0,1,356.92,412.92Z"/></svg>
